src/assets/dark/IconStar.svg

<svg width="70" height="71" viewBox="0 0 70 71" fill="none" xmlns="http://www.w3.org/2000/svg">
<path d="M35 70.1816C54.33 70.1816 70 54.5116 70 35.1816C70 15.8517 54.33 0.181641 35 0.181641C15.67 0.181641 0 15.8517 0 35.1816C0 54.5116 15.67 70.1816 35 70.1816Z" fill="url(#paint0_linear)"/>
<path d="M34.9958 10.3457L39.7181 23.6115L52.4288 17.5699L46.3871 30.2806L59.6529 34.9948L46.3871 39.7171L52.4288 52.4278L39.7181 46.3862L34.9958 59.652L30.2816 46.3862L17.5709 52.4278L23.6125 39.7171L10.3467 34.9948L23.6125 30.2806L17.5709 17.5699L30.2816 23.6115L34.9958 10.3457Z" fill="url(#paint1_linear)"/>
<path d="M34.9958 10.3457L39.7181 23.6115L52.4288 17.5699L46.3871 30.2806L59.6529 34.9948L46.3871 39.7171L52.4288 52.4278L39.7181 46.3862L34.9958 59.652L30.2816 46.3862L17.5709 52.4278L23.6125 39.7171L10.3467 34.9948L23.6125 30.2806L17.5709 17.5699L30.2816 23.6115L34.9958 10.3457Z" fill="url(#paint2_linear)"/>
<path d="M44.1079 12.0867L43.5928 26.1585L57.6365 25.2425L47.3249 34.8203L57.909 44.1036L43.8372 43.5886L44.7532 57.6322L35.1755 47.3206L25.8846 57.9018L26.4071 43.8329L12.3635 44.749L22.6751 35.1712L12.0939 25.8804L26.1628 26.4029L25.2468 12.3592L34.8245 22.6709L44.1079 12.0867Z" fill="url(#paint3_linear)"/>
<defs>
<linearGradient id="paint0_linear" x1="1.52836e-06" y1="14.3055" x2="73.0056" y2="65.9588" gradientUnits="userSpaceOnUse">
<stop stop-color="#6050B0"/>
<stop offset="1" stop-color="#4D3895"/>
</linearGradient>
<linearGradient id="paint1_linear" x1="-5.144" y1="65.7077" x2="93.0794" y2="48.8056" gradientUnits="userSpaceOnUse">
<stop stop-color="white" stop-opacity="0.8"/>
<stop offset="0.776" stop-color="white" stop-opacity="0"/>
</linearGradient>
<linearGradient id="paint2_linear" x1="-5.144" y1="65.7077" x2="93.0794" y2="48.8056" gradientUnits="userSpaceOnUse">
<stop stop-color="white" stop-opacity="0.8"/>
<stop offset="0.776" stop-color="white" stop-opacity="0"/>
</linearGradient>
<linearGradient id="paint3_linear" x1="-13.6512" y1="48.6933" x2="83.8642" y2="69.2908" gradientUnits="userSpaceOnUse">
<stop stop-color="white" stop-opacity="0.8"/>
<stop offset="0.776" stop-color="white" stop-opacity="0"/>
</linearGradient>
</defs>
</svg>

<svg width="70" height="71" fill="none" xmlns="http://www.w3.org/2000/svg"><path d="M35 70.182c19.33 0 35-15.67 35-35s-15.67-35-35-35-35 15.67-35 35 15.67 35 35 35z" fill="url(#paint0_linear)"/><path d="M34.996 10.346l4.722 13.265 12.71-6.041-6.04 12.71 13.265 4.715-13.266 4.722 6.042 12.71-12.71-6.04-4.723 13.265-4.714-13.266-12.711 6.042 6.041-12.71-13.265-4.723 13.266-4.714L17.57 17.57l12.71 6.041 4.715-13.265z" fill="url(#paint1_linear)"/><path d="M34.996 10.346l4.722 13.265 12.71-6.041-6.04 12.71 13.265 4.715-13.266 4.722 6.042 12.71-12.71-6.04-4.723 13.265-4.714-13.266-12.711 6.042 6.041-12.71-13.265-4.723 13.266-4.714L17.57 17.57l12.71 6.041 4.715-13.265z" fill="url(#paint2_linear)"/><path d="M44.108 12.087l-.515 14.072 14.043-.916-10.311 9.577 10.584 9.284-14.072-.515.916 14.043-9.578-10.311-9.29 10.58.522-14.068-14.043.916 10.311-9.578-10.581-9.29 14.069.522-.916-14.044 9.578 10.312 9.283-10.584z" fill="url(#paint3_linear)"/><defs><linearGradient id="paint0_linear" x1="0" y1="14.306" x2="73.006" y2="65.959" gradientUnits="userSpaceOnUse"><stop stop-color="#6050B0"/><stop offset="1" stop-color="#4D3895"/></linearGradient><linearGradient id="paint1_linear" x1="-5.144" y1="65.708" x2="93.079" y2="48.806" gradientUnits="userSpaceOnUse"><stop stop-color="#fff" stop-opacity=".8"/><stop offset=".776" stop-color="#fff" stop-opacity="0"/></linearGradient><linearGradient id="paint2_linear" x1="-5.144" y1="65.708" x2="93.079" y2="48.806" gradientUnits="userSpaceOnUse"><stop stop-color="#fff" stop-opacity=".8"/><stop offset=".776" stop-color="#fff" stop-opacity="0"/></linearGradient><linearGradient id="paint3_linear" x1="-13.651" y1="48.693" x2="83.864" y2="69.291" gradientUnits="userSpaceOnUse"><stop stop-color="#fff" stop-opacity=".8"/><stop offset=".776" stop-color="#fff" stop-opacity="0"/></linearGradient></defs></svg>
